X:1
T:Title
L:1/8
Q:1/4=120
M:4/4
K:D
V:1 treble nm="Midi_1"
V:1
 A2 A2 B2 c2 | d2"^Descant to Ratisbon AMNS 4" e2 e4 | f2 f2 e2 ^d2 | e2 e2 d4 | A2 d2 c2 =c2 | %5
w: Vi- sit then this|soul of mine,|pierce the gloom of|sin and grief;|fill me, ra- dian-|
 B2 c2 (e2 d2) | Bc d2 e2 d2 | c2 fe d4 | A2 B2 c2 ^d2 | e2 e2 f2 f2- | %10
w: cy di- vine, *|scat * ter all my|un- be * lief;|more and more thy-|self dis- play, shin|
 f2 e2 e2"^Written to fit Rawsthorne harmony""^Andrew Sims, 9 February 2018" d2 | ef g2 f4 |] %12
w: * ing to the|per * fect day.|

